X: 1
T:THUG MI GAOL
M:C
L:1/8
Q:80
C:Traditional
S:Gaelic Air
K:HP
|: {g}A3/2{d}A/2{g}f2{g}e3/2f/2{gBG}B2|
{g}A3/2{d}A/2{g}f2{ag}a3/2f/2{gef}e2|
{Gdc}d3/2e/2{g}f3/2e/2f/2{g}A3/2{GdG}B2|  !
{Gdc}d3/2{g}B/2{G}A2{g}fe{Gdc}d2:| |:
{g}f3/2g/2{ag}a2{fg}f3/2e/2{Gdc}d2|
{g}e3/2{A}e/2{g}f2{ag}a3/2f/2{gef}e2|  !
{Gdc}d3/2e/2{g}f3/2e/2f/2{g}A3/2{GdG}B2|
{Gdc}d3/2{g}B/2{G}A2{g}fe{Gdc}d2:|
